X:194
T:Madam Theadores Allmand. THO5.194
T:Madam Theodore's Allemand aka. THO5.194
R:Allemand
M:2/4
L:1/8
B:Thompson's Complete Collection of 200 Favourite Dances Vol.5
F:https://www.libraryofdance.org/manuals/1780c-Thompson-Compleat-5.pdf
Z:vmp. Peter Dunk 2024
Q:1/4=120
K:A
E|cccB|d2c2|eA BA/G/|A/G/A/B/ AE|\\
cccB|d2 c2|
eA BA/G/|A3:|\\
|:e|BBBc|G2A2|Bcdc|B/A/B/c/ Be|
BBBc|G2A2|dcBA|He2zE|\\
cccB|d2c2|eA BA/G/|
A/G/A/B/ AE|\\
cccB|d2c2|eA BA/G/|A3:|
W:
W:The 3 first Couples chassee Rigadoon step and hands six rouns ./.
W:Chassee back again Rigadoon steps and 6 hands back again ./:
W:three Couples promenade and turn Partners under the arm (hold)
W:Lead down the middle, up again & cast off 1 Couple :/.
W:Allemand partner with right hand Rigadoon
W:Allemand with Left & turn Partner under Arm (hold):/.
W:hands six round :/:

